static/img/kroki/e16f2f878a2f05a3ce523ca6956ddbbe.svg

<?xml version="1.0" encoding="us-ascii" standalone="no"?><svg xmlns="http://www.w3.org/2000/svg" xmlns:xlink="http://www.w3.org/1999/xlink" contentStyleType="text/css" height="374px" preserveAspectRatio="none" style="width:515px;height:374px;" version="1.1" viewBox="0 0 515 374" width="515px" zoomAndPan="magnify"><defs/><g><!--class azure_cosmos_db_postgresql_cluster_configuration--><g id="elem_azure_cosmos_db_postgresql_cluster_configuration"><rect codeLine="23" fill="#3D176E" height="39.7891" id="azure_cosmos_db_postgresql_cluster_configuration" rx="2.5" ry="2.5" style="stroke:#000D19;stroke-width:0.5;" width="466" x="7" y="328.58"/><ellipse cx="22" cy="348.4745" fill="#ADD1B2" rx="11" ry="11" style="stroke:#181818;stroke-width:1.0;"/><path d="M24.9688,354.1152 Q24.3906,354.412 23.75,354.5527 Q23.1094,354.7089 22.4063,354.7089 Q19.9063,354.7089 18.5781,353.0683 Q17.2656,351.412 17.2656,348.287 Q17.2656,345.162 18.5781,343.5058 Q19.9063,341.8495 22.4063,341.8495 Q23.1094,341.8495 23.75,342.0058 Q24.4063,342.162 24.9688,342.4589 L24.9688,345.1777 Q24.3438,344.5995 23.75,344.3339 Q23.1563,344.0527 22.5313,344.0527 Q21.1875,344.0527 20.5,345.1308 Q19.8125,346.1933 19.8125,348.287 Q19.8125,350.3808 20.5,351.4589 Q21.1875,352.5214 22.5313,352.5214 Q23.1563,352.5214 23.75,352.2558 Q24.3438,351.9745 24.9688,351.3964 L24.9688,354.1152 Z " fill="#000000"/><text fill="#D9B8FF" font-family="Helvetica" font-size="17" lengthAdjust="spacing" textLength="424" x="41" y="354.3598">azure_cosmos_db_postgresql_cluster_configuration</text></g><!--class azure_proxy_resource--><g id="elem_azure_proxy_resource"><rect codeLine="26" fill="#3D176E" height="39.7891" id="azure_proxy_resource" rx="2.5" ry="2.5" style="stroke:#000D19;stroke-width:0.5;" width="224" x="49" y="167.79"/><ellipse cx="64" cy="187.6845" fill="#ADD1B2" rx="11" ry="11" style="stroke:#181818;stroke-width:1.0;"/><path d="M66.9688,193.3252 Q66.3906,193.622 65.75,193.7627 Q65.1094,193.9189 64.4063,193.9189 Q61.9063,193.9189 60.5781,192.2783 Q59.2656,190.622 59.2656,187.497 Q59.2656,184.372 60.5781,182.7158 Q61.9063,181.0595 64.4063,181.0595 Q65.1094,181.0595 65.75,181.2158 Q66.4063,181.372 66.9688,181.6689 L66.9688,184.3877 Q66.3438,183.8095 65.75,183.5439 Q65.1563,183.2627 64.5313,183.2627 Q63.1875,183.2627 62.5,184.3408 Q61.8125,185.4033 61.8125,187.497 Q61.8125,189.5908 62.5,190.6689 Q63.1875,191.7314 64.5313,191.7314 Q65.1563,191.7314 65.75,191.4658 Q66.3438,191.1845 66.9688,190.6064 L66.9688,193.3252 Z " fill="#000000"/><text fill="#D9B8FF" font-family="Helvetica" font-size="17" lengthAdjust="spacing" textLength="182" x="83" y="193.5698">azure_proxy_resource</text></g><!--class microsoft_resource--><g id="elem_microsoft_resource"><rect codeLine="29" fill="#3D176E" height="39.7891" id="microsoft_resource" rx="2.5" ry="2.5" style="stroke:#000D19;stroke-width:0.5;" width="200" x="308" y="167.79"/><ellipse cx="323" cy="187.6845" fill="#ADD1B2" rx="11" ry="11" style="stroke:#181818;stroke-width:1.0;"/><path d="M325.9688,193.3252 Q325.3906,193.622 324.75,193.7627 Q324.1094,193.9189 323.4063,193.9189 Q320.9063,193.9189 319.5781,192.2783 Q318.2656,190.622 318.2656,187.497 Q318.2656,184.372 319.5781,182.7158 Q320.9063,181.0595 323.4063,181.0595 Q324.1094,181.0595 324.75,181.2158 Q325.4063,181.372 325.9688,181.6689 L325.9688,184.3877 Q325.3438,183.8095 324.75,183.5439 Q324.1563,183.2627 323.5313,183.2627 Q322.1875,183.2627 321.5,184.3408 Q320.8125,185.4033 320.8125,187.497 Q320.8125,189.5908 321.5,190.6689 Q322.1875,191.7314 323.5313,191.7314 Q324.1563,191.7314 324.75,191.4658 Q325.3438,191.1845 325.9688,190.6064 L325.9688,193.3252 Z " fill="#000000"/><text fill="#D9B8FF" font-family="Helvetica" font-size="17" lengthAdjust="spacing" textLength="158" x="342" y="193.5698">microsoft_resource</text></g><!--class resource--><g id="elem_resource"><rect codeLine="32" fill="#3D176E" height="39.7891" id="resource" rx="2.5" ry="2.5" style="stroke:#000D19;stroke-width:0.5;" width="113" x="351.5" y="7"/><ellipse cx="366.5" cy="26.8945" fill="#ADD1B2" rx="11" ry="11" style="stroke:#181818;stroke-width:1.0;"/><path d="M369.4688,32.5352 Q368.8906,32.832 368.25,32.9727 Q367.6094,33.1289 366.9063,33.1289 Q364.4063,33.1289 363.0781,31.4883 Q361.7656,29.832 361.7656,26.707 Q361.7656,23.582 363.0781,21.9258 Q364.4063,20.2695 366.9063,20.2695 Q367.6094,20.2695 368.25,20.4258 Q368.9063,20.582 369.4688,20.8789 L369.4688,23.5977 Q368.8438,23.0195 368.25,22.7539 Q367.6563,22.4727 367.0313,22.4727 Q365.6875,22.4727 365,23.5508 Q364.3125,24.6133 364.3125,26.707 Q364.3125,28.8008 365,29.8789 Q365.6875,30.9414 367.0313,30.9414 Q367.6563,30.9414 368.25,30.6758 Q368.8438,30.3945 369.4688,29.8164 L369.4688,32.5352 Z " fill="#000000"/><text fill="#D9B8FF" font-family="Helvetica" font-size="17" lengthAdjust="spacing" textLength="71" x="385.5" y="32.7798">resource</text></g><!--reverse link azure_proxy_resource to azure_cosmos_db_postgresql_cluster_configuration--><g id="link_azure_proxy_resource_azure_cosmos_db_postgresql_cluster_configuration"><path codeLine="35" d="M178.546,223.9566 C193.726,254.4766 215.23,297.69 230.44,328.25 " fill="none" id="azure_proxy_resource-backto-azure_cosmos_db_postgresql_cluster_configuration" style="stroke:#FFAF37;stroke-width:2.0;"/><polygon fill="none" points="170.53,207.84,173.1738,226.6286,183.9182,221.2845,170.53,207.84" style="stroke:#FFAF37;stroke-width:2.0;"/></g><!--reverse link microsoft_resource to azure_cosmos_db_postgresql_cluster_configuration--><g id="link_microsoft_resource_azure_cosmos_db_postgresql_cluster_configuration"><path codeLine="36" d="M374.6567,220.2023 C342.3567,250.7223 292.67,297.69 260.34,328.25 " fill="none" id="microsoft_resource-backto-azure_cosmos_db_postgresql_cluster_configuration" style="stroke:#FFAF37;stroke-width:2.0;"/><polygon fill="none" points="387.74,207.84,370.5359,215.8412,378.7775,224.5634,387.74,207.84" style="stroke:#FFAF37;stroke-width:2.0;"/></g><!--reverse link resource to microsoft_resource--><g id="link_resource_microsoft_resource"><path codeLine="37" d="M408,65.05 C408,95.57 408,136.9 408,167.46 " fill="none" id="resource-backto-microsoft_resource" style="stroke:#FFAF37;stroke-width:2.0;"/><polygon fill="none" points="408,47.05,402,65.05,414,65.05,408,47.05" style="stroke:#FFAF37;stroke-width:2.0;"/></g><!--SRC=[dP1FJy904CNl_HIRS2O1YGA95oGnUY56l3VRtTcoeTsfCriHrEyk5JNRFq3qEkytxxsPbTKW82_yLkIG9q0SyTgwGfBCnOm8DtFCa4JF66b6uwPuYywV1HOo1t47sGjugsIJU5fPjNR0B2u2wKQgTKfOEdsmzoGTxoLmFg3ccMIUUKysAJq4PVGqcHZJ99kclP4UZg-WXI5fe6zaC1ZeuRI9d8qwUVSliRGx4CFmQGlqqAhPYlYYJhQiYA1awz0V_MZ71wcrTQcu36QFXqxaW6hpvKfgt5IqaHc7CUo10FssW7dhAfXEj1btmlV7u4XLhnDoLnB42Zb7ZdKI5yW-9U3dB5PPMVdiHMTiMfBq5fruYwAFscv1-BgDzojOae9GpwqYP3I-KwtFEhskt_lz_fyhHXsv_tHgxBUDeqy0]--></g></svg>

<svg xmlns="http://www.w3.org/2000/svg" width="515" height="374" viewBox="0 0 515 374"><rect width="466" height="39.789" x="7" y="328.58" fill="#3D176E" rx="2.5" ry="2.5" style="stroke:#000d19;stroke-width:.5"/><circle cx="22" cy="348.474" r="11" fill="#ADD1B2" style="stroke:#181818;stroke-width:1"/><path d="M24.969 354.115q-.578.297-1.219.438-.64.156-1.344.156-2.5 0-3.828-1.64-1.312-1.657-1.312-4.782t1.312-4.781q1.328-1.656 3.828-1.656.703 0 1.344.156.656.156 1.219.453v2.719q-.625-.579-1.219-.844-.594-.281-1.219-.281-1.343 0-2.031 1.078-.687 1.062-.687 3.156t.687 3.172q.688 1.062 2.031 1.062.625 0 1.219-.265.594-.281 1.219-.86z"/><text x="41" y="354.36" fill="#D9B8FF" font-family="Helvetica" font-size="17" textLength="424">azure_cosmos_db_postgresql_cluster_configuration</text><rect width="224" height="39.789" x="49" y="167.79" fill="#3D176E" rx="2.5" ry="2.5" style="stroke:#000d19;stroke-width:.5"/><circle cx="64" cy="187.685" r="11" fill="#ADD1B2" style="stroke:#181818;stroke-width:1"/><path d="M66.969 193.325q-.578.297-1.219.438-.64.156-1.344.156-2.5 0-3.828-1.64-1.312-1.657-1.312-4.782t1.312-4.781q1.328-1.656 3.828-1.656.703 0 1.344.156.656.156 1.219.453v2.719q-.625-.578-1.219-.844-.594-.281-1.219-.281-1.344 0-2.031 1.078-.687 1.062-.687 3.156t.687 3.172q.688 1.062 2.031 1.062.625 0 1.219-.265.594-.281 1.219-.86z"/><text x="83" y="193.57" fill="#D9B8FF" font-family="Helvetica" font-size="17" textLength="182">azure_proxy_resource</text><rect width="200" height="39.789" x="308" y="167.79" fill="#3D176E" rx="2.5" ry="2.5" style="stroke:#000d19;stroke-width:.5"/><circle cx="323" cy="187.685" r="11" fill="#ADD1B2" style="stroke:#181818;stroke-width:1"/><path d="M325.969 193.325q-.578.297-1.219.438-.64.156-1.344.156-2.5 0-3.828-1.64-1.312-1.657-1.312-4.782t1.312-4.781q1.328-1.656 3.828-1.656.703 0 1.344.156.656.156 1.219.453v2.719q-.625-.578-1.219-.844-.594-.281-1.219-.281-1.344 0-2.031 1.078-.687 1.062-.687 3.156t.687 3.172q.688 1.062 2.031 1.062.625 0 1.219-.265.594-.281 1.219-.86z"/><text x="342" y="193.57" fill="#D9B8FF" font-family="Helvetica" font-size="17" textLength="158">microsoft_resource</text><rect width="113" height="39.789" x="351.5" y="7" fill="#3D176E" rx="2.5" ry="2.5" style="stroke:#000d19;stroke-width:.5"/><circle cx="366.5" cy="26.895" r="11" fill="#ADD1B2" style="stroke:#181818;stroke-width:1"/><path d="M369.469 32.535q-.578.297-1.219.438-.64.156-1.344.156-2.5 0-3.828-1.64-1.312-1.657-1.312-4.782t1.312-4.781q1.328-1.656 3.828-1.656.703 0 1.344.156.656.156 1.219.453v2.719q-.625-.578-1.219-.844-.594-.281-1.219-.281-1.344 0-2.031 1.078-.687 1.062-.687 3.156t.687 3.172q.688 1.062 2.031 1.062.625 0 1.219-.265.594-.281 1.219-.86z"/><text x="385.5" y="32.78" fill="#D9B8FF" font-family="Helvetica" font-size="17" textLength="71">resource</text><g fill="none"><path d="M178.546 223.957c15.18 30.52 36.684 73.733 51.894 104.293" style="stroke:#ffaf37;stroke-width:2"/><path d="m170.53 207.84 2.644 18.789 10.744-5.344z" style="stroke:#ffaf37;stroke-width:2"/></g><g fill="none"><path d="M374.657 220.202c-32.3 30.52-81.987 77.488-114.317 108.048" style="stroke:#ffaf37;stroke-width:2"/><path d="m387.74 207.84-17.204 8.001 8.241 8.722z" style="stroke:#ffaf37;stroke-width:2"/></g><path fill="none" d="M408 65.05v102.41m0-120.41-6 18h12z" style="stroke:#ffaf37;stroke-width:2"/></svg>
